polaris-icons/icons/IdentityCard.svg

<svg width="20" height="20" viewBox="0 0 20 20" fill="none" xmlns="http://www.w3.org/2000/svg">
<path d="M11.75 11C11.75 10.5858 12.0858 10.25 12.5 10.25H13.75C14.1642 10.25 14.5 10.5858 14.5 11C14.5 11.4142 14.1642 11.75 13.75 11.75H12.5C12.0858 11.75 11.75 11.4142 11.75 11Z" fill="#4A4A4A"/>
<path d="M12.5 8C12.0858 8 11.75 8.33579 11.75 8.75C11.75 9.16421 12.0858 9.5 12.5 9.5H13.75C14.1642 9.5 14.5 9.16421 14.5 8.75C14.5 8.33579 14.1642 8 13.75 8H12.5Z" fill="#4A4A4A"/>
<path fill-rule="evenodd" clip-rule="evenodd" d="M8 11.5C9.38071 11.5 10.5 10.3807 10.5 9C10.5 7.61929 9.38071 6.5 8 6.5C6.61929 6.5 5.5 7.61929 5.5 9C5.5 10.3807 6.61929 11.5 8 11.5ZM8 10C8.55228 10 9 9.55228 9 9C9 8.44772 8.55228 8 8 8C7.44772 8 7 8.44772 7 9C7 9.55228 7.44772 10 8 10Z" fill="#4A4A4A"/>
<path fill-rule="evenodd" clip-rule="evenodd" d="M8.5179 4H11.4821C12.2949 3.99999 12.9506 3.99999 13.4815 4.04336C14.0281 4.08803 14.5082 4.18239 14.9525 4.40873C15.6581 4.76825 16.2317 5.34193 16.5913 6.04754C16.8176 6.49176 16.912 6.9719 16.9566 7.51853C17 8.04944 17 8.70505 17 9.51788V10.4821C17 11.295 17 11.9506 16.9566 12.4815C16.912 13.0281 16.8176 13.5082 16.5913 13.9525C16.2317 14.6581 15.6581 15.2318 14.9525 15.5913C14.5082 15.8176 14.0281 15.912 13.4815 15.9566C12.9506 16 12.295 16 11.4821 16H8.51788C7.70505 16 7.04944 16 6.51853 15.9566C5.9719 15.912 5.49175 15.8176 5.04754 15.5913C4.34193 15.2318 3.76825 14.6581 3.40873 13.9525C3.18239 13.5082 3.08803 13.0281 3.04336 12.4815C2.99999 11.9506 2.99999 11.295 3 10.4821V9.5179C2.99999 8.70506 2.99999 8.04944 3.04336 7.51853C3.08803 6.9719 3.18239 6.49176 3.40873 6.04754C3.76825 5.34193 4.34193 4.76825 5.04754 4.40873C5.49175 4.18239 5.9719 4.08803 6.51853 4.04336C7.04944 3.99999 7.70507 3.99999 8.5179 4ZM6.64068 5.53838C6.18681 5.57547 5.92604 5.6446 5.72852 5.74524C5.30516 5.96095 4.96095 6.30516 4.74524 6.72852C4.6446 6.92604 4.57547 7.18681 4.53838 7.64068C4.50058 8.10331 4.5 8.69755 4.5 9.55V10.45C4.5 11.3025 4.50058 11.8967 4.53838 12.3593C4.55833 12.6035 4.58755 12.7917 4.62595 12.9443C5.06399 12.6783 5.53332 12.4642 6.02462 12.3074C6.95033 12.0121 7.93046 11.9281 8.89292 12.0616C9.85537 12.1951 10.7757 12.5427 11.5861 13.0787C12.1657 13.4621 12.6785 13.935 13.1063 14.4781C13.1951 14.4736 13.2792 14.4682 13.3593 14.4616C13.8132 14.4245 14.074 14.3554 14.2715 14.2548C14.6948 14.0391 15.039 13.6948 15.2548 13.2715C15.3554 13.074 15.4245 12.8132 15.4616 12.3593C15.4994 11.8967 15.5 11.3025 15.5 10.45V9.55C15.5 8.69755 15.4994 8.10331 15.4616 7.64068C15.4245 7.18681 15.3554 6.92604 15.2548 6.72852C15.039 6.30516 14.6948 5.96095 14.2715 5.74524C14.074 5.6446 13.8132 5.57547 13.3593 5.53838C12.8967 5.50058 12.3025 5.5 11.45 5.5H8.55C7.69755 5.5 7.10331 5.50058 6.64068 5.53838ZM11 14.5C10.9213 14.441 10.8408 14.3842 10.7585 14.3298C10.1351 13.9174 9.42722 13.6501 8.68686 13.5474C7.94651 13.4447 7.19256 13.5093 6.48048 13.7365C6.15275 13.841 5.83772 13.9788 5.54008 14.147C5.60092 14.1858 5.6638 14.2218 5.72852 14.2548C5.92604 14.3554 6.18681 14.4245 6.64068 14.4616C7.10331 14.4994 7.69755 14.5 8.55 14.5H11Z" fill="#4A4A4A"/>
<path fill-rule="evenodd" clip-rule="evenodd" d="M8 8C7.44772 8 7 8.44772 7 9C7 9.55228 7.44772 10 8 10C8.55228 10 9 9.55228 9 9C9 8.44772 8.55228 8 8 8ZM5.5 9C5.5 7.61929 6.61929 6.5 8 6.5C9.38071 6.5 10.5 7.61929 10.5 9C10.5 10.3807 9.38071 11.5 8 11.5C6.61929 11.5 5.5 10.3807 5.5 9Z" fill="#4A4A4A"/>
</svg>

<svg viewBox="0 0 20 20" xmlns="http://www.w3.org/2000/svg"><path d="M11.75 11a.75.75 0 0 1 .75-.75h1.25a.75.75 0 0 1 0 1.5h-1.25a.75.75 0 0 1-.75-.75Z" fill="#5C5F62"/><path d="M12.5 8a.75.75 0 0 0 0 1.5h1.25a.75.75 0 0 0 0-1.5h-1.25Z" fill="#5C5F62"/><path fill-rule="evenodd" d="M8.5 11.25a2.5 2.5 0 1 0 0-5 2.5 2.5 0 0 0 0 5Zm0-1.5a1 1 0 1 0 0-2 1 1 0 0 0 0 2Z" fill="#5C5F62"/><path fill-rule="evenodd" d="M8.518 4h2.964c.813 0 1.469 0 2 .043.546.045 1.026.14 1.47.366a3.75 3.75 0 0 1 1.64 1.639c.226.444.32.924.365 1.47.043.531.043 1.187.043 2v.964c0 .813 0 1.469-.043 2-.045.546-.14 1.026-.366 1.47a3.75 3.75 0 0 1-1.639 1.64c-.444.226-.924.32-1.47.365-.531.043-1.187.043-2 .043h-2.964c-.813 0-1.469 0-2-.043-.546-.045-1.026-.14-1.47-.366a3.75 3.75 0 0 1-1.64-1.638c-.226-.445-.32-.925-.365-1.471-.043-.531-.043-1.187-.043-2v-.964c0-.813 0-1.469.043-2 .045-.546.14-1.026.366-1.47a3.75 3.75 0 0 1 1.639-1.64c.444-.226.924-.32 1.47-.365.531-.043 1.187-.043 2-.043Zm-1.877 1.538c-.454.037-.715.107-.912.207a2.25 2.25 0 0 0-.984.984c-.1.197-.17.458-.207.912-.037.462-.038 1.057-.038 1.909v.9c0 .853 0 1.447.038 1.91.034.41.094.663.18.854a6.5 6.5 0 0 1 8.858 1.226c.324-.04.532-.102.695-.185a2.25 2.25 0 0 0 .984-.984c.1-.197.17-.458.207-.912.037-.462.038-1.056.038-1.909v-.9c0-.852 0-1.447-.038-1.91-.037-.453-.107-.714-.207-.911a2.25 2.25 0 0 0-.984-.984c-.197-.1-.458-.17-.912-.207-.462-.037-1.056-.038-1.909-.038h-2.9c-.852 0-1.447 0-1.91.038Zm4.859 8.962a4.989 4.989 0 0 0-2.313-.953 4.999 4.999 0 0 0-3.384.743c.189.082.439.139.838.172.462.037 1.057.038 1.909.038h2.95Z" fill="#5C5F62"/></svg>
